app/assets/v2/images/hackathon/ethhack/sponsors/sponsor-placeholder.svg

<svg fill="none" height="137" viewBox="0 0 137 137" width="137" xmlns="http://www.w3.org/2000/svg"><circle cx="68.5" cy="68.5" fill="#eee" r="68.5"/><path d="m61.5938 83.125c0-4.1562.5156-7.4688 1.5468-9.9375 1.0313-2.4687 3.0625-5.1719 6.0938-8.1094 3.0625-2.9687 5-5.0781 5.8125-6.3281 1.25-1.9062 1.875-3.9688 1.875-6.1875 0-2.9375-.7344-5.1719-2.2031-6.7031-1.4376-1.5625-3.5626-2.3438-6.375-2.3438-2.6876 0-4.8594.7656-6.5157 2.2969-1.625 1.5-2.4375 3.5469-2.4375 6.1406h-11.3906c.0625-5.5312 1.9375-9.9062 5.625-13.125 3.7188-3.2187 8.625-4.8281 14.7188-4.8281 6.2812 0 11.1718 1.5938 14.6718 4.7812 3.5313 3.1876 5.2969 7.6407 5.2969 13.3594 0 5.0938-2.375 10.1094-7.125 15.0469l-5.7656 5.6719c-2.0625 2.3437-3.125 5.7656-3.1875 10.2656zm-.7969 14.5781c0-1.8437.5781-3.3281 1.7343-4.4531 1.1563-1.1562 2.7188-1.7344 4.6876-1.7344 2 0 3.5781.5938 4.7343 1.7813 1.1563 1.1562 1.7344 2.625 1.7344 4.4062 0 1.7188-.5625 3.1559-1.6875 4.3129-1.125 1.156-2.7188 1.734-4.7812 1.734-2.0626 0-3.6563-.578-4.7813-1.734-1.0937-1.157-1.6406-2.5941-1.6406-4.3129z" fill="#898989"/></svg>

<svg width="137" height="137" viewBox="0 0 137 137" fill="none" xmlns="http://www.w3.org/2000/svg">
<circle cx="68.5" cy="68.5" r="68.5" fill="#EEEEEE"/>
<path d="M61.5938 83.125C61.5938 78.9688 62.1094 75.6562 63.1406 73.1875C64.1719 70.7188 66.2031 68.0156 69.2344 65.0781C72.2969 62.1094 74.2344 60 75.0469 58.75C76.2969 56.8438 76.9219 54.7812 76.9219 52.5625C76.9219 49.625 76.1875 47.3906 74.7188 45.8594C73.2812 44.2969 71.1562 43.5156 68.3438 43.5156C65.6562 43.5156 63.4844 44.2812 61.8281 45.8125C60.2031 47.3125 59.3906 49.3594 59.3906 51.9531H48C48.0625 46.4219 49.9375 42.0469 53.625 38.8281C57.3438 35.6094 62.25 34 68.3438 34C74.625 34 79.5156 35.5938 83.0156 38.7812C86.5469 41.9688 88.3125 46.4219 88.3125 52.1406C88.3125 57.2344 85.9375 62.25 81.1875 67.1875L75.4219 72.8594C73.3594 75.2031 72.2969 78.625 72.2344 83.125H61.5938ZM60.7969 97.7031C60.7969 95.8594 61.375 94.375 62.5312 93.25C63.6875 92.0938 65.25 91.5156 67.2188 91.5156C69.2188 91.5156 70.7969 92.1094 71.9531 93.2969C73.1094 94.4531 73.6875 95.9219 73.6875 97.7031C73.6875 99.4219 73.125 100.859 72 102.016C70.875 103.172 69.2812 103.75 67.2188 103.75C65.1562 103.75 63.5625 103.172 62.4375 102.016C61.3438 100.859 60.7969 99.4219 60.7969 97.7031Z" fill="#898989"/>
</svg>
